X: 27887
T: Mountain Dew
R: reel
M: 4/4
K: Edorian
B2EB GBEB|B2EB ADFA|B2EB GBEd|gedB ADFA:|
B2eg fded|B2eg fd~d2|B2eg fded|B2AG FDFA|
B2eg fded|Bdeg fddc|dfaf gfed|B2Ad Beed||

